X:437
T: Schnster Schatz, willst du' s erlauben? (156a), S. 340
N: T0325
O: Luxemburg
S: Singendes Volk, Esch-Alzette 1937, posth.]
N: Straen, fff Witry, 10.1.1933;
N: (156c)Esch-Alzette, hhh Dominik Mller, 1.6.1915
R: historische, Kriegs- und Soldatenlieder, Liebeslied]
M: 4/4
L: 1/8
K: F
CC | F4FAcA | G4G2
GA | B3BB2cB | A2FFF2
CC | F4FAcA | G4G2
GA | B3BB2cB | A2FFF2
Fd | d3ffefd | c4A2
dd | c2G2BAG2 | F4z2
Fd | d3ffefd | c4A2
dd | c2G2BAG2 | F4z2

@@@ Tune index: 8491
